!!!!SEGMENT: pl-kk--kk-i-334--003_costanzi-giovanni-battista--tantum-ergo-amen.krn
!!!cenid: 17xx:1936
!!!COM: Costanzi, Giovanni Battista
!!!COM-rismID: pe20000434
!!!CDT: 1704-1778
!!!CNT: Italian
!!!OPR: Tantum ergo
!!!OTL: Amen
!!!OMV: 003
!!!PDT:
!!!AGN: Sacred
!!!SMS-siglum: PL-Kk
!!!SMS-shelfmark: Kk.I.334
!!!SMS-shelfwork: 001-003 M
!!!SMS-variant:
!!!SMS-altvar:
!!!NIFC-rismSourceID: 1001143656
!!!NIFC-rismChildID: 1001143656
!!!NIFC-islandoraID: pl-kk:5612
!!!URL-pdf-islandora: https://repozytorium.nifc.pl/islandora/object/pl-kk%3A5612/datastream/PDF/view
!!!URL-scan: https://polish.musicsources.pl/pl/lokalizacje/galeria/rekopisy/5951 @EN{Scan on Polish Music Sources Website} @PL{Skany w portalu Dziedzictwo Muzyki Polskiej w otwartym dostępie}
!!!ONB-nifc: UWAGA: części Tantum ergo: 1. Tantum ergo, 2. Genitori, 3. Amen
!!!AIN: 1 organ 1 vox
!!!key:
**kern	**fb	**dynam	**kern	**text
*part2	*	*	*part1	*part1
*staff2	*	*	*staff1	*staff1
*Iorgan	*	*	*Ivox	*
*I"Organo	*	*	*I"Canto Solo	*
*I'org	*	*	*I'C	*
*clefF4	*	*	*clefC1	*
*k[f#]	*	*	*k[f#]	*
*G:	*	*	*G:	*
*M3/8	*	*	*M3/8	*
=1	=1	=1	=1	=1
*all\right	*	*	*all\right	*
!LO:TX:t=P:problem=powyżej partii Organo pięciolinia z pomocniczo zapisaną partią Canto Solo	!	!	!LO:TX:t=P:problem=oznaczenie metryczne błędnie 3/4	!
!LO:TX:a:B:t=Graʒioso	!	!	!LO:TX:a:t=Grazioso	!
8G\L	.	.	16dd\LL	A-
.	.	.	16ee\JJ	.
8B\	.	.	8dd\	-men
8G\J	.	.	8r	.
=2	=2	=2	=2	=2
8F#\L	.	.	16dd\LL	a-
.	.	.	16ee\JJ	.
8D\	.	.	8dd\	-men
8F#\J	.	.	8r	.
=3	=3	=3	=3	=3
8G\L	.	.	16b\LL	a-
.	.	.	16dd\	.
8B\	.	.	16b\	.
.	.	.	16g\	.
8d\J	#	.	16a\	.
.	.	.	16f#\JJ	.
!	!	!	!LO:LB:g=original	!
=4	=4	=4	=4	=4
16G\LL	.	.	4g\	men
16e\	.	.	.	.
16d\	.	.	.	.
16c\	.	.	.	.
16B\	.	.	8r	.
16A\JJ	.	.	.	.
!LO:LB:g=original	!	!	!	!
=5	=5	=5	=5	=5
8G\L	.	.	8b\	a-
8A\	.	.	8.cc#X\L	.
8G\J	.	.	.	.
.	.	.	32b\LL	.
.	.	.	32cc#\JJJ	.
=6	=6	=6	=6	=6
8F#\L	.	.	8dd\	.
8E\	.	.	4dd\|	.
8D\J	.	.	.	.
=7	=7	=7	=7	=7
8C#X/L	.	.	16ee\LL	.
.	.	.	16cc#X\	.
8C#/	.	.	16ee\	.
.	.	.	16cc#X\	.
8C#/J	.	.	16a\	.
.	.	.	16g\JJ	.
!	!	!	!LO:LB:g=original	!
=8	=8	=8	=8	=8
8D\L	.	.	8f#/	.
8F#\	.	.	8r	.
8D\J	.	.	8dd\	.
=9	=9	=9	=9	=9
*	*	*	*Xtuplet	*
!	!	!	!LO:TUP:a:global:problem=triola bez liczby i łuku	!
8G\L	.	.	24b\LL	.
.	.	.	24cc#X\	.
.	.	.	24b\JJ	.
8A\	.	.	24cc#X\LL	.
.	.	.	24dd\	.
.	.	.	24cc#\JJ	.
8B\J	.	.	24dd\LL	.
.	.	.	24ee\	.
.	.	.	24dd\JJ	.
!LO:LB:g=original	!	!	!	!
=10	=10	=10	=10	=10
!LO:TX:t=P:problem=mixed beam	!	!	!	!
8c#X\L	.	.	8ee\	.
!LO:SIC:v:s=8C#	!	!	!	!
8C/	.	.	4g/	.
!LO:SIC:v:s=8C#J	!	!	!	!
8C/J	.	.	.	.
=11	=11	=11	=11	=11
8D\L	.	.	8f#/	.
8D\	.	.	[4dd\	.
8D\J	.	.	.	.
!	!	!	!LO:LB:g=original	!
=12	=12	=12	=12	=12
8E\L	7	.	8dd\L]	.
8E\	#6	.	16cc#X\L	.
.	.	.	16b\	.
8E\J	.	.	16a\	.
.	.	.	16g\JJ	.
=13	=13	=13	=13	=13
8F#\L	.	.	8f#/	.
8F#\	.	.	[4ff#\	.
8F#\J	.	.	.	.
=14	=14	=14	=14	=14
8G\L	7	.	8ff#\L]	.
8G\	6	.	16ee\L	.
.	.	.	16dd\	.
8G\J	.	.	16cc#X\	.
.	.	.	16b\JJ	.
=15	=15	=15	=15	=15
8A\L	6 4	.	8a\L	.
8A\	.	.	8a\	.
8A\J	.	.	8a\J	.
!LO:LB:g=original	!	!	!	!
=16	=16	=16	=16	=16
8AA/L	6 4	.	[4a\	.
8AA/	.	.	.	.
8AA/J	.	.	32a\LLL]	.
.	.	.	32b\	.
.	.	.	32cc#X\	.
.	.	.	32dd\JJJ	.
!	!	!	!LO:LB:g=original	!
=17	=17	=17	=17	=17
8AA/L	5 #3	.	4.eeT\	.
8AA/	.	.	.	.
8AA/J	.	.	.	.
=18	=18	=18	=18	=18
!LO:TX:t=P:problem=mixed beam	!	!	!	!
8D/L	.	.	4dd\	-men
8d\	#3	.	.	.
8A\J	.	.	8r	.
=19	=19	=19	=19	=19
8D\L	#3	.	8r	.
8D\	.	.	8dd\	a-
8D\J	.	.	8dd\	-men
=20	=20	=20	=20	=20
8E\L	7 #3	.	16dd\LL	a-
.	.	.	16b\JJ	.
8E\	.	.	8g#X\	-men
8E\J	.	.	8r	.
!LO:LB:g=original	!	!	!	!
=21	=21	=21	=21	=21
8G#X\L	.	.	16dd\LL	a-
.	.	.	16b\	.
8G#\	.	.	16ee\	.
.	.	.	16dd\	.
8G#\J	.	.	16ccn\	.
.	.	.	16b\JJ	.
!	!	!	!LO:LB:g=original	!
=22	=22	=22	=22	=22
!	!	!LO:DY:b:t=f.	!	!
8A\L	n3	f	8cc\	-men
8A\	.	.	8r	.
8A\J	.	.	8cc\	a-
=23	=23	=23	=23	=23
8F#\L	.	.	16cc\LL	.
.	.	.	16a\JJ	.
8F#\	.	.	8f#/	.
8E\J	.	.	8r	.
=24	=24	=24	=24	=24
8F#\L	6 5	.	16cc\LL	.
!	!	!LO:DY:b:t=f.	!	!
.	.	f	16a\	.
8F#\	.	.	16dd\	.
.	.	.	16cc\	.
8F#\J	.	.	16b\	.
.	.	.	16a\JJ	.
=25	=25	=25	=25	=25
!	!	!	!LO:TUP:a:problem=klamra łukowa	!
8G\L	.	.	24b\LL	.
.	.	.	24cc\	.
.	.	.	24dd\JJ	.
8F#\	.	.	16dd|\LL	.
.	.	.	16dd|\	.
8D\J	.	.	16dd|\	.
.	.	.	16dd|\JJ	.
!LO:LB:g=original	!	!	!LO:LB:g=original	!
=26	=26	=26	=26	=26
!	!	!	!LO:TUP:a:problem=klamra łukowa	!
8G\L	.	.	24b\LL	.
.	.	.	24cc\	.
.	.	.	24dd\JJ	.
8F#\	.	.	16dd|\LL	.
.	.	.	16dd|\	.
8D\J	.	.	16dd|\	.
.	.	.	16dd|\JJ	.
=27	=27	=27	=27	=27
4BB/	6	.	8gg\L	.
.	.	.	8dd\J	.
8C#X/	7	.	8b\	-men
=28	=28	=28	=28	=28
8D/L	6	.	8b\	a-
8D/	5	.	8a\	-men
8D/J	.	.	8r	.
=29	=29	=29	=29	=29
8A\L	n3	.	4.ccn\	a-
8E\	n6	.	.	.
8F#X\J	5	.	.	.
=30	=30	=30	=30	=30
8G\L	.	.	16b\LL	.
.	.	.	16g\	.
8A\	.	.	16cc\	.
.	.	.	16a\JJ	.
8B\J	.	.	8dd\	.
!LO:LB:g=original	!	!	!LO:LB:g=original	!
=31	=31	=31	=31	=31
8A\L	.	.	4.ccn\	.
8E\	.	.	.	.
8F#X\J	.	.	.	.
=32	=32	=32	=32	=32
8G\L	.	.	8b\L	.
8A\	.	.	8cc\	.
8B\J	.	.	8dd\J	.
=33	=33	=33	=33	=33
8c\L	.	.	24ee\LL	.
.	.	.	24dd\	.
.	.	.	24cc\JJ	.
8d\	.	.	8b\L	.
8D\J	.	.	8aT\J	.
=34	=34	=34	=34	=34
4G\	.	.	4g\	-men
8r	.	.	8r	.
==	==	==	==	==
*-	*-	*-	*-	*-
!!!system-decoration: {s1,s2}
!!!RDF**kern: | = vertical stroke
!!!ENC: Marta Lawrence
!!!END: 2021-02-20
!!!ENC: Andrzej Kubiczek
!!!END: 2021-02-06
!!!YEC: Copyright 2022 Narodowy Instytut Fryderyka Chopina (https://polishscores.org)
!!!YEM: License CC-BY-4.0 (https://creativecommons.org/licenses/by/4.0)
